public/img/illustrations/blood-sticker.svg

<svg width="85" height="85" viewBox="0 0 85 85" fill="none" xmlns="http://www.w3.org/2000/svg">
<rect x="4.49121" y="4.49127" width="76.0175" height="76.0175" rx="38.0088" fill="#FCFCF0" stroke="#F87C56" stroke-width="6"/>
<rect x="6.46484" y="6.4649" width="72.0702" height="72.0702" rx="36.0351" fill="#FCFCF0" stroke="#2D2A26"/>
<g clip-path="url(#clip0_5507_1414)">
<path d="M45.023 15.5486C45.1248 14.8525 45.6168 14.6029 46.5749 14.7493C47.533 14.8957 47.9351 15.2773 47.8334 15.971C47.7317 16.6647 47.2302 16.9311 46.2792 16.7775C45.3282 16.6239 44.9213 16.2518 45.023 15.5486Z" fill="#2D2A26"/>
<path d="M59.2573 22.5334C58.6943 23.4479 57.7599 23.7791 56.5463 23.0134L51.666 19.9219L54.9992 14.5045L59.6973 17.4808C60.9085 18.2489 60.8967 19.113 60.407 19.9099C60.1585 20.2961 59.7788 20.5763 59.3401 20.6972C59.4901 20.9825 59.5616 21.3037 59.5471 21.6268C59.5325 21.9499 59.4324 22.2631 59.2573 22.5334ZM57.9278 21.5949C58.2803 21.0236 57.9444 20.81 57.5777 20.5771L54.4054 18.5681L53.6957 19.713L56.8727 21.7245C57.2394 21.9645 57.5753 22.1685 57.9278 21.5949ZM55.0607 17.5L57.8994 19.293C58.2661 19.533 58.6091 19.737 58.9474 19.173C59.2857 18.6089 58.9474 18.4025 58.5807 18.1649L55.742 16.3743L55.0607 17.5Z" fill="#2D2A26"/>
<path d="M63.5537 28.4019L62.5105 29.2948L58.3115 24.2999L63.0995 20.1546L64.1475 21.4051L60.3933 24.6551L63.5537 28.4019Z" fill="#2D2A26"/>
<path d="M65.4336 27.8595C67.3497 27.0242 68.8661 27.6747 69.959 30.2598C71.0519 32.8449 70.4629 34.4075 68.5562 35.2404C66.6495 36.0733 65.1024 35.4252 64.0118 32.8401C62.9213 30.255 63.5079 28.6996 65.4336 27.8595ZM67.9175 33.7258C69.0884 33.2145 69.3794 32.3744 68.7123 30.7975C68.0452 29.2205 67.2527 28.8533 66.0723 29.3693C64.8918 29.8854 64.5961 30.7351 65.2585 32.3024C65.9209 33.8698 66.7346 34.2419 67.9175 33.7258Z" fill="#2D2A26"/>
<path d="M68.8215 36.3661C70.9009 36.2245 72.1192 37.3478 72.3037 40.1514C72.4883 42.9549 71.419 44.2318 69.3467 44.3734C67.2744 44.515 66.0348 43.3821 65.8456 40.5882C65.6563 37.7943 66.7303 36.5053 68.8215 36.3661ZM69.2403 42.7365C70.513 42.65 71.0618 41.954 70.9506 40.2426C70.8394 38.5312 70.2102 37.9167 68.928 38.0031C67.6458 38.0895 67.0875 38.7952 67.2011 40.497C67.3146 42.1988 67.951 42.8229 69.2403 42.7365Z" fill="#2D2A26"/>
<path d="M67.1968 53.0672C65.1316 52.4984 64.5355 50.8326 64.9613 49.2388L66.1583 44.7671L72.2309 46.4473L71.0268 50.9118C70.6057 52.5056 69.2596 53.6481 67.1968 53.0672ZM67.6203 51.483C69.0941 51.8911 69.5624 51.1494 69.8842 49.9541L70.4969 47.6642L67.0454 46.7041L66.4304 48.9916C66.111 50.1989 66.1465 51.0774 67.6203 51.4878V51.483Z" fill="#2D2A26"/>
<path d="M64.0397 57.6972C64.5814 58.134 64.5483 58.6909 63.9451 59.4614C63.3418 60.2319 62.8143 60.3903 62.2726 59.9414C61.7308 59.4926 61.7639 58.9357 62.3625 58.1724C62.961 57.4091 63.4909 57.2483 64.0397 57.6972Z" fill="#2D2A26"/>
<path d="M50.9707 66.7247C50.4692 65.7646 50.6514 64.7877 51.917 64.1037L56.9889 61.3481L59.9577 66.9792L55.0751 69.6195C53.8166 70.3035 53.0832 69.8595 52.6456 69.0362C52.4402 68.6244 52.3906 68.1505 52.506 67.7041C52.187 67.6958 51.8761 67.6005 51.606 67.4281C51.3358 67.2558 51.1164 67.0128 50.9707 66.7247ZM52.4351 66.0215C52.7497 66.6167 53.0974 66.4295 53.4783 66.2207L56.776 64.4325L56.1467 63.2324L52.8514 65.023C52.4705 65.239 52.1204 65.4286 52.4351 66.0215ZM57.3603 65.5414L54.4198 67.1376C54.0389 67.344 53.6888 67.5336 53.9987 68.1217C54.3086 68.7098 54.654 68.5105 55.042 68.2993L57.9824 66.7031L57.3603 65.5414Z" fill="#2D2A26"/>
<path d="M43.8215 67.5696L43.585 66.2159L49.9508 65.0302L51.084 71.3093L49.4943 71.6045L48.6048 66.6815L43.8215 67.5696Z" fill="#2D2A26"/>
<path d="M43.3485 69.4898C43.1119 71.59 41.7943 72.6101 39.043 72.2741C36.2918 71.938 35.258 70.6467 35.4946 68.5537C35.7312 66.4606 37.0583 65.4333 39.8 65.7526C42.5418 66.0718 43.585 67.3703 43.3485 69.4898ZM37.0985 68.7457C36.9495 70.0322 37.5243 70.7067 39.2015 70.9059C40.8788 71.1052 41.5908 70.5939 41.7398 69.2978C41.8889 68.0016 41.3093 67.3175 39.6392 67.1207C37.969 66.9239 37.2357 67.4399 37.0867 68.7361L37.0985 68.7457Z" fill="#2D2A26"/>
<path d="M34.3828 68.2201C33.465 70.1211 31.8966 70.6203 29.415 69.3938C26.9335 68.1672 26.3705 66.5807 27.286 64.6869C28.2015 62.793 29.7888 62.265 32.2656 63.4867C34.7424 64.7085 35.3054 66.3118 34.3828 68.2201ZM28.7314 65.4093C28.1707 66.5735 28.4948 67.4016 30.0064 68.1577C31.5181 68.9137 32.3721 68.6689 32.928 67.4976C33.4839 66.3262 33.1645 65.4838 31.6624 64.7349C30.1602 63.986 29.2968 64.238 28.7314 65.4093Z" fill="#2D2A26"/>
<path d="M20.9341 58.4318C22.4528 56.9028 24.175 57.2124 25.32 58.3862L28.5372 61.6746L24.0686 66.1727L20.8537 62.8819C19.7064 61.7106 19.4154 59.9608 20.9341 58.4318ZM22.0743 59.5983C20.9885 60.6904 21.3859 61.4729 22.247 62.3514L23.903 64.0316L26.4436 61.4753L24.7877 59.7951C23.9266 58.9142 23.1578 58.5062 22.0743 59.5983Z" fill="#2D2A26"/>
<path d="M18.5517 53.3649C17.9083 53.6241 17.4494 53.3169 17.0922 52.4048C16.735 51.4927 16.8556 50.9478 17.5061 50.691C18.1567 50.4341 18.6204 50.7438 18.9728 51.6511C19.3253 52.5584 19.2023 53.1033 18.5517 53.3649Z" fill="#2D2A26"/>
<path d="M17.3786 37.3622C18.4384 37.3982 19.1931 38.0511 19.1481 39.5008L18.9636 45.3359L12.6758 45.1319L12.8508 39.5176C12.8958 38.0775 13.6386 37.6454 14.5635 37.6742C15.0174 37.6978 15.4469 37.89 15.77 38.2143C15.9385 37.9392 16.1766 37.715 16.4595 37.5652C16.7425 37.4153 17.0599 37.3452 17.3786 37.3622ZM15.1975 43.5669L15.304 40.1849C15.3182 39.748 15.33 39.3472 14.6747 39.3256C14.0195 39.304 14.0147 39.7048 14.0005 40.1513L13.8941 43.5333L15.1975 43.5669ZM17.2462 39.0064C16.5814 38.9848 16.5696 39.3856 16.5554 39.8225L16.4371 43.6149L17.7666 43.6581L17.8849 39.8657C17.8991 39.424 17.9109 39.0232 17.2462 39.0064Z" fill="#2D2A26"/>
<path d="M20.2339 30.6462L21.5137 31.1071L19.3515 37.2974L13.4209 35.1659L13.9603 33.6178L18.6111 35.298L20.2339 30.6462Z" fill="#2D2A26"/>
<path d="M18.8311 29.2709C17.161 28.006 16.9552 26.3474 18.6111 24.0959C20.2671 21.8445 21.8993 21.5804 23.5647 22.8406C25.2301 24.1007 25.4572 25.7833 23.8013 28.0252C22.1454 30.267 20.5083 30.5431 18.8311 29.2709ZM22.5948 24.1559C21.5729 23.3806 20.7023 23.5463 19.6993 24.9216C18.6963 26.297 18.7696 27.1755 19.7987 27.9556C20.8277 28.7356 21.6912 28.5676 22.7084 27.2019C23.7256 25.8361 23.6262 24.936 22.5948 24.1559Z" fill="#2D2A26"/>
<path d="M24.3879 22.0388C23.2217 20.2843 23.5671 18.6521 25.8617 17.0799C28.1564 15.5077 29.7863 15.8029 30.9478 17.5599C32.1093 19.3169 31.771 20.9683 29.4835 22.5357C27.1959 24.1031 25.5589 23.803 24.3879 22.0388ZM29.6065 18.4696C28.8968 17.3943 28.0239 17.2695 26.6211 18.2296C25.2183 19.1897 25.0101 20.0466 25.7292 21.1291C26.4484 22.2117 27.3308 22.3437 28.7241 21.3908C30.1175 20.4379 30.3375 19.5498 29.6065 18.4696Z" fill="#2D2A26"/>
<path d="M39.455 15.0949C40.0015 17.1951 38.8778 18.5513 37.3047 18.9737L32.8881 20.1571L31.2842 13.9836L35.6984 12.8002C37.2692 12.3778 38.9086 12.9971 39.455 15.0949ZM37.8914 15.5149C37.501 14.0148 36.6352 13.974 35.4524 14.2908L33.1932 14.8957L34.1064 18.4073L36.3655 17.8C37.5483 17.4832 38.2817 17.0127 37.8914 15.5149Z" fill="#2D2A26"/>
</g>
<g clip-path="url(#clip1_5507_1414)">
<path d="M53.1223 32.4899L45.8579 28.2958C45.4122 28.0384 44.8421 28.1911 44.5848 28.6369C44.3274 29.0827 44.4801 29.6527 44.9259 29.9101L52.1903 34.1042C52.636 34.3615 53.2061 34.2088 53.4634 33.763C53.7208 33.3172 53.5681 32.7472 53.1223 32.4899Z" fill="#D1E7F8"/>
<path d="M46.7775 42.548L40.6029 53.2428C40.1085 54.0991 39.2942 54.7239 38.3392 54.9798C37.3841 55.2357 36.3665 55.1017 35.5102 54.6074C34.6539 54.113 34.0291 53.2987 33.7732 52.3436C33.5173 51.3886 33.6513 50.371 34.1457 49.5147L40.5533 38.4164L40.9807 38.7001C41.5883 39.1727 41.5688 39.5408 42.4723 40.0625C42.8363 40.2842 43.2428 40.4271 43.6654 40.4822C44.0879 40.5371 44.4941 40.68 44.8579 40.9017C45.7619 41.4236 45.7424 41.7917 46.3501 42.2643C46.486 42.3684 46.6288 42.4632 46.7775 42.548Z" fill="#D80027"/>
<path d="M51.7873 33.8712L46.7777 42.5481L46.3503 42.2643C45.7426 41.7917 45.7621 41.4236 44.8581 40.9017C44.4943 40.68 44.0881 40.5371 43.6656 40.4822C43.243 40.4272 42.8366 40.2842 42.4726 40.0625C41.569 39.5409 41.5885 39.1727 40.9809 38.7002C40.845 38.596 40.7022 38.5012 40.5535 38.4164L45.3301 30.1431L51.7873 33.8712Z" fill="#BDDBFF"/>
<path d="M40.5527 38.4164C40.7014 38.5012 40.8442 38.596 40.9801 38.7002L40.5527 38.4164Z" fill="#E0E0E2"/>
<path d="M46.777 42.548C46.6283 42.4633 46.4855 42.3684 46.3496 42.2643L46.777 42.548Z" fill="#E0E0E2"/>
<path d="M40.9801 38.7002L40.5527 38.4164C40.7014 38.5012 40.8442 38.596 40.9801 38.7002Z" fill="#E0E0E2"/>
<path d="M46.777 42.548C46.6283 42.4633 46.4855 42.3684 46.3496 42.2643L46.777 42.548Z" fill="#E0E0E2"/>
<path d="M53.355 32.0863L46.0906 27.8922C45.7695 27.7068 45.3879 27.6566 45.0298 27.7525C44.6716 27.8485 44.3663 28.0828 44.1809 28.4039C43.9955 28.725 43.9452 29.1066 44.0412 29.4648C44.1372 29.8229 44.3715 30.1283 44.6926 30.3136L33.7414 49.2817C33.1852 50.245 33.0345 51.3898 33.3224 52.4642C33.6103 53.5387 34.3132 54.4547 35.2765 55.0109C36.2398 55.5671 37.3846 55.7178 38.4591 55.4299C39.5335 55.142 40.4496 54.4391 41.0057 53.4758L51.9569 34.5077C52.278 34.6931 52.6596 34.7433 53.0178 34.6474C53.3759 34.5514 53.6813 34.3171 53.8667 33.996C54.0521 33.6749 54.1023 33.2933 54.0063 32.9352C53.9104 32.577 53.6761 32.2717 53.355 32.0863ZM40.1986 53.0098C39.766 53.759 39.0535 54.3057 38.2178 54.5296C37.3822 54.7536 36.4918 54.6363 35.7425 54.2038C34.9933 53.7712 34.4466 53.0587 34.2226 52.223C33.9987 51.3873 34.116 50.4969 34.5485 49.7477L40.708 39.0792C40.8733 39.2135 41.0223 39.3666 41.1522 39.5354C41.4466 39.9169 41.8164 40.2337 42.2386 40.466C42.651 40.7157 43.1105 40.8777 43.5883 40.9419C44.3247 41.0541 44.992 41.4393 45.4573 42.021C45.6561 42.2781 45.8899 42.5061 46.1518 42.6984L40.1986 53.0098ZM46.6213 41.8852C46.456 41.7507 46.3067 41.5975 46.1766 41.4287C45.5683 40.673 44.6997 40.1715 43.7411 40.0225C43.0046 39.9103 42.3374 39.5251 41.872 38.9434C41.6732 38.6863 41.4394 38.4583 41.1775 38.266L45.4997 30.7797L51.1498 34.0417L46.6213 41.8852ZM52.4229 33.7006L45.1586 29.5065C45.0516 29.4447 44.9735 29.3429 44.9415 29.2235C44.9095 29.1041 44.9262 28.9769 44.988 28.8699C45.0498 28.7629 45.1516 28.6848 45.271 28.6528C45.3904 28.6208 45.5176 28.6375 45.6246 28.6993L52.889 32.8934C52.996 32.9552 53.0741 33.057 53.1061 33.1764C53.1381 33.2958 53.1213 33.423 53.0595 33.53C52.9977 33.637 52.8959 33.7151 52.7766 33.7471C52.6572 33.7791 52.53 33.7624 52.4229 33.7006Z" fill="#2D2A26"/>
<path d="M45.3751 32.8599L46.9894 33.7919C47.0964 33.8537 47.2236 33.8705 47.343 33.8385C47.4624 33.8065 47.5642 33.7284 47.6259 33.6214C47.6877 33.5143 47.7045 33.3871 47.6725 33.2677C47.6405 33.1484 47.5624 33.0466 47.4554 32.9848L45.8411 32.0528C45.734 31.991 45.6068 31.9742 45.4875 32.0062C45.3681 32.0382 45.2663 32.1163 45.2045 32.2233C45.1427 32.3304 45.126 32.4576 45.1579 32.577C45.1899 32.6963 45.268 32.7981 45.3751 32.8599Z" fill="#2D2A26"/>
<path d="M44.6758 34.0707L46.2901 35.0027C46.3972 35.0645 46.5244 35.0812 46.6438 35.0492C46.7631 35.0173 46.8649 34.9392 46.9267 34.8321C46.9885 34.7251 47.0053 34.5979 46.9733 34.4785C46.9413 34.3591 46.8632 34.2573 46.7562 34.1955L45.1419 33.2635C45.0348 33.2017 44.9076 33.185 44.7882 33.217C44.6689 33.249 44.5671 33.3271 44.5053 33.4341C44.4435 33.5411 44.4267 33.6683 44.4587 33.7877C44.4907 33.9071 44.5688 34.0089 44.6758 34.0707Z" fill="#2D2A26"/>
<path d="M43.9766 35.2814L45.5909 36.2134C45.698 36.2752 45.8252 36.2919 45.9445 36.2599C46.0639 36.228 46.1657 36.1498 46.2275 36.0428C46.2893 35.9358 46.3061 35.8086 46.2741 35.6892C46.2421 35.5698 46.164 35.468 46.0569 35.4062L44.4426 34.4742C44.3356 34.4124 44.2084 34.3957 44.089 34.4277C43.9696 34.4596 43.8679 34.5378 43.8061 34.6448C43.7443 34.7518 43.7275 34.879 43.7595 34.9984C43.7915 35.1178 43.8696 35.2196 43.9766 35.2814Z" fill="#2D2A26"/>
</g>
<defs>
<clipPath id="clip0_5507_1414">
<rect width="59.6491" height="59.6491" fill="white" transform="translate(12.6758 12.6754)"/>
</clipPath>
<clipPath id="clip1_5507_1414">
<rect width="29.8246" height="29.8246" fill="white" transform="translate(37.042 22.1295) rotate(30)"/>
</clipPath>
</defs>
</svg>

<svg width="85" height="85" fill="none" xmlns="http://www.w3.org/2000/svg"><rect x="4.491" y="4.491" width="76.017" height="76.017" rx="38.009" fill="#FCFCF0" stroke="#F87C56" stroke-width="6"/><rect x="6.465" y="6.465" width="72.07" height="72.07" rx="36.035" fill="#FCFCF0" stroke="#2D2A26"/><g clip-path="url(#clip0_5507_1414)" fill="#2D2A26"><path d="M45.023 15.549c.102-.697.594-.946 1.552-.8.958.147 1.36.528 1.258 1.222-.101.694-.603.96-1.554.806-.95-.153-1.358-.525-1.256-1.228zm14.234 6.984c-.563.915-1.497 1.246-2.71.48l-4.881-3.091 3.333-5.418 4.698 2.977c1.211.768 1.2 1.632.71 2.429a1.857 1.857 0 01-1.067.787 1.823 1.823 0 01-.083 1.836zm-1.33-.938c.353-.571.017-.785-.35-1.018l-3.172-2.009-.71 1.145 3.178 2.011c.366.24.702.445 1.055-.13zM55.062 17.5l2.838 1.793c.367.24.71.444 1.048-.12.339-.564 0-.77-.366-1.008l-2.839-1.79-.681 1.125zm8.492 10.902l-1.044.893-4.198-4.995 4.788-4.145 1.047 1.25-3.754 3.25 3.16 3.747zm1.88-.542c1.916-.836 3.432-.185 4.525 2.4 1.093 2.585.504 4.147-1.403 4.98-1.906.833-3.454.185-4.544-2.4-1.09-2.585-.504-4.14 1.422-4.98zm2.484 5.866c1.17-.511 1.461-1.352.794-2.928-.667-1.577-1.46-1.945-2.64-1.429-1.18.516-1.476 1.366-.814 2.933.663 1.568 1.477 1.94 2.66 1.424zm.904 2.64c2.079-.142 3.297.982 3.482 3.785.184 2.804-.885 4.08-2.957 4.222-2.073.142-3.312-.99-3.501-3.785-.19-2.794.884-4.083 2.975-4.222zm.418 6.37c1.273-.086 1.822-.782 1.71-2.493-.11-1.712-.74-2.326-2.022-2.24-1.282.087-1.84.792-1.727 2.494.114 1.702.75 2.326 2.04 2.24zm-2.043 10.331c-2.065-.569-2.662-2.234-2.236-3.828l1.197-4.472 6.073 1.68-1.204 4.465c-.421 1.594-1.767 2.736-3.83 2.155zm.423-1.584c1.474.408 1.942-.334 2.264-1.529l.613-2.29-3.452-.96-.615 2.288c-.319 1.207-.284 2.085 1.19 2.496v-.005zm-3.58 6.214c.541.437.508.994-.095 1.764s-1.13.93-1.672.48c-.542-.448-.51-1.005.09-1.769.598-.763 1.128-.924 1.677-.475zm-13.07 9.028c-.5-.96-.319-1.937.947-2.621l5.072-2.756 2.969 5.631-4.883 2.64c-1.258.684-1.992.24-2.43-.583a1.914 1.914 0 01-.139-1.332 1.757 1.757 0 01-.9-.276 1.793 1.793 0 01-.635-.703zm1.465-.703c.315.595.662.407 1.043.199l3.298-1.788-.63-1.2-3.295 1.79c-.38.216-.73.406-.416.999zm4.925-.48l-2.94 1.596c-.381.206-.731.396-.421.984s.655.388 1.043.177l2.94-1.596-.622-1.162zM43.822 67.57l-.237-1.354 6.366-1.186 1.133 6.28-1.59.294-.89-4.922-4.782.888zm-.473 1.92c-.237 2.1-1.555 3.12-4.306 2.784-2.751-.336-3.785-1.627-3.548-3.72.236-2.093 1.563-3.12 4.305-2.801 2.742.319 3.785 1.617 3.549 3.737zm-6.25-.744c-.15 1.286.425 1.96 2.103 2.16 1.677.2 2.389-.312 2.538-1.608.149-1.296-.43-1.98-2.1-2.177-1.671-.197-2.404.319-2.553 1.615l.011.01zm-2.716-.526c-.918 1.901-2.486 2.4-4.968 1.174-2.482-1.227-3.044-2.813-2.129-4.707.915-1.894 2.503-2.422 4.98-1.2 2.476 1.221 3.04 2.825 2.117 4.733zm-5.652-2.81c-.56 1.163-.236 1.992 1.275 2.748 1.512.756 2.366.51 2.922-.66.556-1.172.236-2.014-1.266-2.763-1.502-.749-2.365-.497-2.93.674zm-7.797-6.978c1.519-1.53 3.241-1.22 4.386-.046l3.217 3.289-4.468 4.498-3.215-3.291c-1.148-1.171-1.439-2.921.08-4.45zm1.14 1.166c-1.086 1.092-.688 1.875.173 2.753l1.656 1.68 2.54-2.556-1.655-1.68c-.861-.88-1.63-1.289-2.714-.197zm-3.522-6.233c-.644.26-1.103-.048-1.46-.96-.357-.912-.236-1.457.414-1.714.65-.257 1.114.053 1.467.96.352.907.23 1.452-.421 1.714zm-1.173-16.003c1.06.036 1.814.69 1.77 2.139l-.185 5.835-6.288-.204.175-5.614c.045-1.44.788-1.873 1.712-1.844.454.024.884.216 1.207.54.168-.275.407-.499.69-.649.282-.15.6-.22.919-.203zm-2.182 6.205l.107-3.382c.014-.437.026-.838-.63-.86-.654-.021-.66.38-.673.826l-.107 3.382 1.303.034zm2.05-4.56c-.666-.022-.677.379-.692.816l-.118 3.792 1.33.043.118-3.792c.014-.442.026-.843-.639-.86zm2.987-8.361l1.28.461-2.162 6.19-5.931-2.131.54-1.548 4.65 1.68 1.623-4.652zm-1.403-1.376c-1.67-1.264-1.876-2.923-.22-5.174 1.656-2.252 3.288-2.516 4.954-1.255 1.665 1.26 1.892 2.942.236 5.184s-3.293 2.518-4.97 1.246zm3.764-5.114c-1.022-.775-1.893-.61-2.896.766-1.003 1.375-.93 2.253.1 3.034 1.029.78 1.892.612 2.91-.754 1.017-1.366.917-2.266-.114-3.046zm1.793-2.117c-1.166-1.755-.82-3.387 1.474-4.96 2.294-1.571 3.924-1.276 5.086.48 1.161 1.758.823 3.41-1.465 4.977-2.287 1.567-3.924 1.267-5.095-.497zm5.218-3.57c-.71-1.075-1.582-1.2-2.985-.24-1.403.96-1.61 1.818-.892 2.9.72 1.083 1.602 1.215 2.995.262 1.393-.953 1.613-1.841.883-2.921zm9.849-3.374c.547 2.1-.577 3.456-2.15 3.879l-4.417 1.183-1.604-6.173 4.414-1.184c1.571-.422 3.21.197 3.757 2.295zm-1.564.42c-.39-1.5-1.256-1.541-2.439-1.224l-2.259.605.913 3.511 2.26-.607c1.182-.317 1.916-.787 1.525-2.285z"/></g><g clip-path="url(#clip1_5507_1414)"><path d="M53.122 32.49l-7.264-4.194a.932.932 0 10-.932 1.614l7.264 4.194a.932.932 0 00.932-1.614z" fill="#D1E7F8"/><path d="M46.778 42.548l-6.175 10.695a3.728 3.728 0 01-6.457-3.728l6.407-11.099.428.284c.607.473.588.84 1.491 1.362.364.222.77.365 1.193.42.423.055.83.198 1.193.42.904.522.884.89 1.492 1.362.136.104.279.2.428.284z" fill="#D80027"/><path d="M51.787 33.871l-5.01 8.677-.427-.284c-.607-.472-.588-.84-1.492-1.362a3.046 3.046 0 00-1.192-.42 3.05 3.05 0 01-1.193-.42c-.904-.521-.884-.89-1.492-1.362a3.78 3.78 0 00-.428-.284l4.777-8.273 6.457 3.728z" fill="#BDDBFF"/><path d="M40.553 38.416c.148.085.291.18.427.284l-.427-.284zm6.224 4.132a3.778 3.778 0 01-.427-.284l.427.284z" fill="#E0E0E2"/><path d="M40.98 38.7l-.427-.284c.148.085.291.18.427.284zm5.797 3.848a3.778 3.778 0 01-.427-.284l.427.284z" fill="#E0E0E2"/><path d="M53.355 32.086l-7.264-4.194a1.398 1.398 0 00-1.398 2.422L33.74 49.282a4.194 4.194 0 107.265 4.194l10.95-18.968a1.398 1.398 0 001.399-2.422zM40.199 53.01a3.262 3.262 0 01-5.65-3.262l6.159-10.669c.165.135.314.288.444.456a3.5 3.5 0 001.087.931c.412.25.872.412 1.35.476a2.965 2.965 0 011.868 1.079c.2.257.433.485.695.677L40.199 53.01zm6.422-11.125a2.764 2.764 0 01-.444-.456 3.895 3.895 0 00-2.436-1.407 2.966 2.966 0 01-1.869-1.079 3.486 3.486 0 00-.694-.677L45.5 30.78l5.65 3.262-4.529 7.843zm5.802-8.184l-7.264-4.195a.466.466 0 01.466-.807l7.264 4.194a.466.466 0 01-.466.808z" fill="#2D2A26"/><path d="M45.375 32.86l1.614.932a.466.466 0 10.466-.807l-1.614-.932a.466.466 0 10-.466.807zm-.699 1.21l1.614.933a.466.466 0 00.466-.807l-1.614-.932a.466.466 0 00-.466.807zm-.699 1.211l1.614.932a.466.466 0 00.466-.807l-1.614-.932a.466.466 0 10-.466.807z" fill="#2D2A26"/></g><defs><clipPath id="clip0_5507_1414"><path fill="#fff" transform="translate(12.676 12.675)" d="M0 0h59.649v59.649H0z"/></clipPath><clipPath id="clip1_5507_1414"><path fill="#fff" transform="rotate(30 -22.773 80.186)" d="M0 0h29.825v29.825H0z"/></clipPath></defs></svg>
